X:1
T:O the Good We All May Do
T:O the Good We All May Do
T:Winston Cornelius Hafley
T:Winston Cornelius Hafley, 1903
T:Public Domain Courtesy of the Cyber Hymnal™
C:Winston Cornelius Hafley
Z:Public Domain
Z:Courtesy of the Cyber Hymnal™
%%score ( 1 2 ) 3
L:1/8
Q:1/4=95
M:3/4
K:Bb
V:1 treble 
V:2 treble 
V:3 bass 
V:1
 [Fd]>[Ec] | [DB]3 [FB] [EA]>[EG] | [EG]2 [DF]2 [B,D]>[CE] | [DF]3 [FB] [Fc]>[F=B] | %4
w: 1.~O the|lit- tle deed of|kind- ness, Like the|lit- tle grains of|
w: 2.~See the|tears a- long the|way- side, See the|sor- row, sore dis-|
w: 3.~We can|cheer the weak, the|faint- ing, If but|words we have to|
 [Fc]4 [Fd]>[Ec] | [DB]3 [FB] [EA]>[EG] | [EG]2 [DF]2 [B,D]>[CE] | [DF]3 F [EG]>[EA] | [DB]4 || %9
w: sand, May re-|strain life’s ma- ny|trou- bles As these|’gainst the o- cean|stand.|
w: tress; Ma- ny,|ma- ny hearts are|break- ing, Help to|give the wea- ry|rest.|
w: give; We can|tell them of a|Sav- ior, How He|died that they might|live!|
"^Refrain" [Fd]>[=E^c] | [Fd]4 [Ec]>[Fd] | [DB]4 [EG]>[EB] | [DF]4 [Fc]>[F=B] | [Fc]4 [Fd]>[Ec] | %14
w: Go- ing|by, go- ing|by, Go- ing|by, go- ing|by, Pre- cious|
w: |||||
w: |||||
 [DB]3 [FB] [EA]>[EG] | [EG]2 [DF]2 [B,D]>[CE] | [DF]3 [FB] [FA]>[Ec] | [DB]4 |] %18
w: souls will rise to|bless us, While the|days are go- ing|by.|
w: ||||
w: ||||
V:2
 x2 | x6 | x6 | x6 | x6 | x6 | x6 | x3 F x2 | x4 || x2 | x6 | x6 | x6 | x6 | x6 | x6 | x6 | x4 |] %18
V:3
 [B,,B,]>[B,,F,] | [B,,F,]3 [D,B,] [E,B,]>[E,B,] | [B,,B,]4 [B,,F,]>[B,,F,] | %3
w: ~ ~|~ ~ ~ ~|~ ~ ~|
 [B,,B,]3 [D,B,] [F,A,]>[F,^G,] | [F,A,]4 [F,B,]>[F,A,] | [B,,B,]3 [D,B,] [E,B,]>[E,B,] | %6
w: ~ ~ ~ ~|~ ~ ~|~ ~ ~ ~|
 [B,,B,]2 [B,,B,]2 [B,,F,]>[B,,F,] | [B,,B,]3 [D,B,] [F,A,]>[F,C] | [B,,B,]4 || z2 | %10
w: ~ ~ ~ ~|~ ~ ~ ~|~||
 [B,,B,]>[B,,B,] [B,,B,]2 z2 | [B,,F,]>[B,,F,] [B,,F,]2 z2 | [B,,B,]>[B,,B,] [B,,B,]2 z2 | %13
w: Go- ing by,|go- ing by,|go- ing by,|
 [F,A,]>[F,A,] [F,A,]2 [F,B,]>[F,A,] | [B,,B,]3 [D,B,] [E,B,]>[E,B,] | %15
w: go- ing by, * *||
 [B,,B,]2 [B,,B,]2 [B,,F,]>[B,,F,] | [F,B,]3 [F,D] [F,C]>[F,A,] | [B,,B,]4 |] %18
w: |||

